lightbulb-variant.svg

<svg fill="currentColor" viewBox="0 0 24 24"><path d="M9 20h6v1c0 .55-.45 1-1 1h-4c-.55 0-1-.45-1-1zM19 9c0 2.38-1.19 4.47-3 5.74V17c0 .55-.45 1-1 1H9c-.55 0-1-.45-1-1v-2.26C6.19 13.47 5 11.38 5 9c0-3.87 3.13-7 7-7s7 3.13 7 7m-4.29-.71c-.39-.39-1.03-.39-1.42 0L12 9.59l-1.29-1.3c-.39-.39-1.03-.39-1.42 0s-.39 1.03 0 1.42l1.71 1.7V16h2v-4.59l1.71-1.7c.39-.39.39-1.03 0-1.42"/></svg>

<svg  viewBox="0 0 24 24" fill="currentColor"><path  d="M9 20H15V21C15 21.55 14.55 22 14 22H10C9.45 22 9 21.55 9 21V20M19 9C19 11.38 17.81 13.47 16 14.74V17C16 17.55 15.55 18 15 18H9C8.45 18 8 17.55 8 17V14.74C6.19 13.47 5 11.38 5 9C5 5.13 8.13 2 12 2S19 5.13 19 9M14.71 8.29C14.32 7.9 13.68 7.9 13.29 8.29L12 9.59L10.71 8.29C10.32 7.9 9.68 7.9 9.29 8.29C8.9 8.68 8.9 9.32 9.29 9.71L11 11.41V16H13V11.41L14.71 9.71C15.1 9.32 15.1 8.68 14.71 8.29Z"/></svg>
